X:691
T:Annenwalzer - Walzer/Waltz/Valse
C:traditionell
Z:abc transcription Simon Wascher
N:please mail errors to simon.wascher@chello.at
M:3/4
L:1/4
K:G
d|^c2d|c2d|B2d|g2B|
c2d|fga|b2g|d2d|
^c2d|c2d|B2d|g2a|
b2a|e2f|1g>gg|g2:|2g3|g||
|:Bc|^c2d|dBc|^c2d|dd/e/f/g/|
b2a|e2f|1a>gf/e/|d:|2g>gg|gz||
|:d|c>db|a2d|B>da|g2d|
c2d|fga|b2g|d2B|
c>db|a2d|B>da|g2d|
c2d|fga|g>gg|gz:|


